X:1
T:Damon & Phillis - Morley
T:James Gibb editions
T:#
%%score [ 1 2 { 3 | 4 } 5 ]
L:1/8
Q:1/4=126
M:4/4
K:F
V:1 treble nm="Soprano" snm="S"
V:2 treble nm="Alto" snm="A"
V:3 treble-8 nm="Tenor I" snm="T"
V:4 treble-8 
V:5 bass nm="Bass" snm="B"
V:1
 B8 | A6 d2 |"^Damon and Phillis" c2 d2 B4 |"^Thomas Morley\n(1557-1603)" A8 | z8 | z4 d4 | %6
w: Da-|mon and|Phil- lis squar-|ed,||And|
[M:4/4] D2 d3 c B2 | A4 z4 | d4 D2 d2- | dc B2 A4 | z4 z2 d2 | (GABc d2) (c2- | c2 B2) A4 | =B8 | %14
w: to point her the|place,|and to point|* her the place|the|nymph * * * * him|* * dar-|ed.|
 _B8 | A6 d2 | c2 d2 B4 | A8 | z8 | z4 d4 | D2 d3 c B2 | A4 z4 | d4 D2 d2- | dc B2 A4 | z4 z2 d2 | %25
w: Her|glove she|down did cast|him,||And|to meet her a-|lone,|and to meet|* her a- lone|she|
 GABc d2 (c2- | c2 B2) A4 | =B8 | _B4 B2 c2 | d6 d2 | c3 d B3 B | A4 A4 | z8 | d2 dc d2 e2 | %34
w: bade him haste him, haste him,|* * haste|him.|A- like their|wea- pons|were, a- like their|smit- ing,||And lit- tle Love came|
 f4 f4 | _e4 e4 | d8 | =B8 | z8 | d2 dc d2 e2 | f4 f4 |[Q:1/4=123] _e4[Q:1/4=118] e4 | %42
w: run- ning|to the|fight-|ing,||And lit- tle Love came|run- ning|to the|
[Q:1/4=112] d8 |[Q:1/4=108] =B8 |] %44
w: fight-|ing.|
V:2
 G8 | ^F6 B2 | A2 A2 G4 | ^F6 A2 | D2 G3 G ^F2 | G4 z4 |[M:4/4] z2 G2 D2 G2- | GG ^F2 G4 | %8
w: Da-|mon and|Phil- lis squar-|ed, And|to point her the|place,|and to point|* her the place,|
 z4 z2 G2 | D2 G3 G ^F2 | G4 z2 F2 | (_EFGA B2) (A2- | AG) (G4 ^F2) | G8 | G8 | ^F6 B2 | A2 A2 G4 | %17
w: and|to point her the|place the|nymph * * * * him|* * dar\- *|ed.|Her|glove she|down did cast|
 ^F6 A2 | D2 G3 G ^F2 | G4 z4 | z2 G2 D2 G2- | GG ^F2 G4 | z4 z2 G2 | D2 G3 G ^F2 | G4 z2 F2 | %25
w: him, And|to meet her a-|lone,|and to meet|* her a- lone,|and|to meet her a-|lone she|
 _EFGA B2 (A2- | AG) (G4 ^F2) | G8 | G4 G2 A2 | B6 B2 | A3 B G2 G2 | ^F4 F4 | z8 | z8 | %34
w: bade him haste him, haste him,|* * haste *|him.|A- like their|wea- pons|were, a- like their|smit- ing,|||
 F2 FG A2 B2 | c3 B A2 G2 | (^F2 G4 F2) | G8 | z8 | z8 | F2 FG A2 B2 | c3 B A2 G2 | (^F2 G4 F2) | %43
w: And lit- tle Love came|run- ning to the|fight\- * *|ing,|||And lit- tle Love came|run- ning to the|fight\- * *|
 G8 |] %44
w: ing.|
V:3
 d8 | d6 d2 | f2 f2 d4 | d2 d2 d2 A2 | B4 A4 | z4 z2 A2 |[M:4/4][K:treble-8] G2 B3 A G2 | A4 z4 | %8
w: Da-|mon and|Phil- lis squar-|ed, and Phil- lis|squar- ed,|And|to point her the|place,|
 z2 A2 G2 B2- | BA G2 D2 A2 | (!courtesy!_Bcde f2) d2 | B4 f2 e2 | d8 | d8 | d8 | d4 z2 d2 | %16
w: and to point|* her the place the|nymph * * * * him|dar- ed, him|dar-|ed.|Her|glove she|
 f2 f2 d4 | d2 d2 d2 A2 | B4 A4 | z4 z2 A2 | G2 B3 A G2 | A4 z4 | z2 A2 G2 B2- | BA G2 D2 A2 | %24
w: down did cast|him, she down did|cast him,|And|to meet her a-|lone,|and to meet|* her a- lone she|
 Bcde f2 d2 | B4 f2 _e2 | d8 | d8 | _e4 e2 e2 | f6 f2 | f3 f d3 d | d4 d4 | B2 BA B2 c2 | (d6 cB) | %34
w: bade him haste him, haste him,|she bade him|haste|him.|A- like their|wea- pons|were, a- like their|smit- ing,|And lit- tle Love came|run\- * *|
 A4 F4 | (c6 G2) | d8 | d8 | !courtesy!_B2 BA B2 c2 | (d6 cB) | A4 F4 | (c6 G2) | d8 | d8 |] %44
w: ning to|the *|fight-|ing,|And lit- tle Love came|run\- * *|ning to|the *|fight-|ing.|
V:4
 G8 | A6 B2 | c2 F2 (B2 G2) | A8 | z2 G2 D2 d2- | dc B2 A4 |[M:4/4][K:treble-8] z4 z2 G2 | %7
w: Da-|mon and|Phil- lis squar\- *|ed,|And to point|* her the place,|and|
 D2 d3 c B2 | A4 z2 G2 | (GABc d3) c | B4 A4 | G4 F2 c2 | (^F2 G2 A4) | G8 | G8 | A6 B2 | %16
w: to point her the|place the|nymph * * * * him|dar- ed,|the nymph him|dar\- * *|ed.|Her|glove she|
 c2 F2 (B2 G2) | A8 | z2 G2 D2 d2- | dc B2 A4 | z4 z2 G2 | D2 d3 c B2 | A4 z2 G2 | GABc d3 c | %24
w: down did cast *|him,|And to meet|* her a- lone,|and|to meet her a-|lone she|bade him haste him, haste him,|
 B4 A4 | G4 F2 c2 | (F2 G2 A4) | G8 | G4 G2 c2 | F6 B2 | c3 F B3 G | A4 A4 | G2 GF G2 A2 | B4 F4 | %34
w: haste him,|she bade him|haste * *|him.|A- like their|wea- pons|were, a- like their|smit- ing,|And lit- tle Love came|run- ning|
 F4 d4 | G4 c4- | c2 B2 A4 | G8 | G2 GF G2 A2 | B4 F4 | F4 d4 | G4 c4- | c2 B2 A4 | G8 |] %44
w: to the|fight- ing,|* the fight-|ing,|And lit- tle Love came|run- ning|to the|fight- ing,|* the fight-|ing.|
V:5
 G,,8 | D,6 B,,2 | F,2 D,2 G,4 | D,8 | z4 z2 D,2 | G,,2 G,3 G, ^F,2 |[M:4/4] G,4 z4 | %7
w: Da-|mon and|Phil- lis squar-|ed,|And|to point her the|place,|
 z2 D,2 G,,2 G,2- | G,G, ^F,2 G,4 | z4 z2 D,2 | (G,,A,,B,,C, D,4) | _E,4 B,,2 C,2 | D,8 | G,,8 | %14
w: and to point|* her the place|the|nymph, * * * *|the nymph him|dar-|ed.|
 G,,8 | D,6 B,,2 | F,2 D,2 G,4 | D,8 | z4 z2 D,2 | G,,2 G,3 G, ^F,2 | G,4 z4 | z2 D,2 G,,2 G,2- | %22
w: Her|glove she|down did cast|him,|And|to meet her a-|lone,|and to meet|
 G,G, ^F,2 G,4 | z4 z2 D,2 | G,,A,,B,,C, D,4 | _E,4 B,,2 C,2 | D,8 | G,,8 | _E,4 E,2 C,2 | %29
w: * her a- lone|she|bade him haste him, haste,|she bade him|haste|him.|A- like their|
 B,,6 B,,2 | F,3 D, G,3 G,, | D,4 D,4 | z8 | B,,2 B,,A,, B,,2 C,2 | D,4 D,4 | C,4 C,4 | D,8 | %37
w: wea- pons|were, a- like their|smit- ing,||And lit- tle Love came|run- ning|to the|fight-|
 G,,8 | z8 | B,,2 B,,A,, B,,2 C,2 | D,4 D,4 | C,4 C,4 | D,8 | G,,8 |] %44
w: ing,||And lit- tle Love came|run- ning|to the|fight-|ing.|

